X:36
T:Two Hundred Miles From Clinton
C:George Wilson
M:4/4
K:A
E2 |: A2 Ac BAFA | EAcA ceea | feaf ecAc | dcBA  BdcB  \
    |  A2 Ac BAFA | EAcA ceea | feaf ecAc \
    |1 dBec A2 E2 \
   :|2 dBec A2 e2 \
    |  f2 (3fga ecAc | dcBA BdcB | AECE A,2 ea | fecA B3c \
    |  dcde fgaf | ecAc BAFE | A2 Ac BAaf  | ecBc A3 z :|
